lib/logo_tmp/nrk-logo-nrk-radio-title-below-on-dark.svg

<svg width="51" height="35" viewBox="0 0 51 35" fill="none" xmlns="http://www.w3.org/2000/svg">
<path d="M0 14.3336V0.334849H4.59339V14.3336H0ZM10.8428 2.56282L13.4844 14.3336H8.45737L5.30307 0.334849H8.12254C8.76907 0.326458 9.39641 0.554368 9.88691 0.975699C10.3782 1.37936 10.7158 1.93972 10.8428 2.56282ZM14.1744 14.3336V0.334849H18.7678V14.3336H14.1744ZM22.2372 5.65836C21.7422 5.66319 21.2552 5.53368 20.828 5.2837C20.4064 5.04005 20.0563 4.68986 19.8127 4.26828C19.5624 3.84096 19.4329 3.3538 19.4378 2.85862C19.4321 2.36645 19.5618 1.88219 19.8127 1.45874C20.0589 1.04173 20.4086 0.695353 20.828 0.453183C21.2553 0.203497 21.7423 0.0740111 22.2372 0.0785254C22.7292 0.0732265 23.2133 0.202828 23.6369 0.453183C24.0521 0.697476 24.3981 1.04357 24.6424 1.45874C24.893 1.88231 25.0226 2.36649 25.0172 2.85862C25.0218 3.35376 24.8923 3.84084 24.6424 4.26828C24.4007 4.68801 24.0542 5.0379 23.6369 5.2837C23.2133 5.53455 22.7289 5.66418 22.2366 5.65836H22.2372ZM25.7269 14.3336V0.334849H30.3207V14.3336H25.7269ZM36.136 7.98485C36.1489 7.99843 36.2475 8.15944 36.4317 8.46789C36.6159 8.77635 36.8558 9.17071 37.1513 9.65091C37.447 10.1309 37.759 10.6402 38.0874 11.1789C38.4157 11.7176 38.7247 12.227 39.0143 12.707C39.3028 13.187 39.6313 13.7292 40 14.3336H34.9531C34.6375 13.8209 34.3515 13.3576 34.0952 12.9436C33.8389 12.5295 33.5665 12.0826 33.2778 11.6028C32.9884 11.1235 32.7024 10.6569 32.4196 10.203C32.1368 9.74904 31.8938 9.35146 31.6905 9.01014C31.4863 8.66861 31.3449 8.43855 31.2663 8.32004C31.0713 8.02593 30.9559 7.68625 30.9315 7.33421C30.951 6.99633 31.0597 6.66972 31.2466 6.38754C31.3254 6.2561 31.47 6.02274 31.6803 5.68756C31.8906 5.35238 32.137 4.95481 32.4196 4.49475C32.7021 4.0347 32.9882 3.56478 33.2778 3.08501C33.5674 2.60525 33.8398 2.15502 34.0952 1.7344C34.3519 1.31422 34.6379 0.847595 34.9531 0.334528H40L36.0962 6.70299C35.9754 6.89207 35.9073 7.10998 35.8991 7.33421C35.9121 7.56962 35.9942 7.79595 36.1353 7.98485H36.136Z" fill="white"/>
<path d="M6.86371 28.5483C7.12598 28.5082 7.38481 28.4478 7.63774 28.3677C8.15029 28.2082 8.62368 27.943 9.0273 27.5891C9.42935 27.2301 9.74583 26.7856 9.95363 26.2883C10.1872 25.7163 10.3013 25.1025 10.2887 24.4848C10.2975 23.7642 10.1461 23.0506 9.84528 22.3958C9.53449 21.7489 9.02279 21.2199 8.38666 20.8877C7.53788 20.4754 6.59943 20.2822 5.65684 20.3259H0V34.3202H2.04987V28.959H5.0652L8.5542 34.3202H10.9586L7.68666 29.4718L6.86371 28.5483ZM6.8986 22.3068C7.3068 22.4624 7.64813 22.7552 7.86406 23.1349C8.08984 23.5763 8.19842 24.0682 8.17942 24.5636C8.20399 25.1119 8.07073 25.6558 7.79541 26.1306C7.53476 26.5349 7.14612 26.8402 6.6916 26.9978C6.14341 27.1863 5.56624 27.2764 4.98668 27.2639H2.04987V22.0406H5.22287C5.7933 22.0217 6.36212 22.112 6.8986 22.3068Z" fill="#8BB5EB"/>
<path d="M21.5824 33.0788C21.4383 33.092 21.2931 33.0702 21.1593 33.0152C21.0254 32.9603 20.9069 32.8737 20.8137 32.7631C20.6309 32.4473 20.5549 32.0809 20.5969 31.7185L20.6363 27.6584C20.6406 27.2327 20.5876 26.8082 20.4786 26.3966C20.3827 26.0358 20.2225 25.6953 20.0056 25.3915C19.7862 25.0945 19.5077 24.8462 19.1876 24.6622C18.8157 24.451 18.4134 24.2982 17.9951 24.2091C17.4836 24.0986 16.9613 24.0457 16.438 24.0514C16.0228 24.0512 15.6081 24.0774 15.1962 24.13C14.8071 24.1789 14.4219 24.2546 14.0432 24.3566C13.692 24.452 13.3465 24.5673 13.0084 24.7019L12.7719 26.3773C13.1004 26.259 13.4126 26.1604 13.7085 26.0816C14.0044 26.0027 14.29 25.9371 14.5655 25.8845C14.8359 25.8328 15.109 25.7967 15.3835 25.7764C15.6527 25.7563 15.9187 25.7463 16.1818 25.7465C16.5837 25.738 16.9849 25.7845 17.3743 25.8845C17.6583 25.9556 17.9195 26.0981 18.1331 26.2984C18.3232 26.4934 18.4591 26.7345 18.5273 26.9981C18.6114 27.3232 18.6511 27.6581 18.6455 27.9938L18.6433 28.4883L16.3394 28.6443C15.5514 28.6663 14.7751 28.8402 14.053 29.1564C13.5127 29.3929 13.0463 29.7709 12.7029 30.2504C12.4116 30.6771 12.2569 31.1823 12.2594 31.699C12.2557 32.1839 12.3744 32.6618 12.6044 33.0886C12.8454 33.5271 13.2082 33.8865 13.649 34.1234C14.1867 34.4031 14.7876 34.5389 15.3934 34.5176C15.9609 34.5307 16.5259 34.4371 17.0589 34.2417C17.5198 34.0614 17.9415 33.7937 18.3007 33.4533C18.437 33.3225 18.5663 33.1846 18.6883 33.0403C18.7267 33.2444 18.7988 33.4406 18.9018 33.6208C19.0773 33.9227 19.3476 34.1581 19.6705 34.2909C20.0274 34.4343 20.4094 34.5047 20.794 34.4979C20.9122 34.4979 21.0272 34.4946 21.1389 34.4881C21.2486 34.4818 21.3575 34.4653 21.4641 34.4388C21.5693 34.4125 21.6642 34.3895 21.75 34.3698C21.8272 34.3526 21.9029 34.3295 21.9766 34.3008L22.1934 32.9802C22.0846 33.0176 21.9724 33.044 21.8583 33.059C21.7668 33.0714 21.6747 33.078 21.5824 33.0788ZM18.3007 32.1918C18.087 32.3608 17.8557 32.5062 17.6108 32.6255C17.367 32.7442 17.1086 32.8303 16.8424 32.8817C16.5662 32.9351 16.2857 32.9615 16.0044 32.9605C15.6832 32.9697 15.3638 32.9092 15.0682 32.7831C14.8276 32.6788 14.6247 32.5034 14.4867 32.2805C14.3502 32.0442 14.2819 31.7747 14.2896 31.5019C14.2706 31.1733 14.3607 30.8477 14.5458 30.5756C14.7605 30.3253 15.0513 30.1522 15.3736 30.0828C15.8773 29.9643 16.3942 29.9113 16.9114 29.9252H18.637L18.6281 31.8817C18.528 31.9941 18.4185 32.0981 18.3007 32.1918Z" fill="#8BB5EB"/>
<path d="M30.9063 24.5298C30.8862 24.5219 30.8675 24.5123 30.8472 24.5044C30.4788 24.3657 30.0998 24.2569 29.7139 24.1792C29.2627 24.0903 28.8038 24.0476 28.344 24.0514C27.4829 24.0462 26.6359 24.2707 25.8904 24.7019C25.1208 25.1493 24.4899 25.8007 24.0672 26.5842C23.582 27.5098 23.3444 28.5452 23.3773 29.5897C23.3547 30.4915 23.5332 31.387 23.8997 32.2112C24.2195 32.9152 24.7409 33.5085 25.398 33.9161C26.1044 34.332 26.9138 34.5404 27.7333 34.5173C28.236 34.5203 28.7368 34.454 29.2214 34.3202C29.7044 34.1816 30.1655 33.9759 30.5913 33.7091C30.7388 33.6181 30.887 33.516 31.0341 33.4092L31.2815 34.3202H32.9171V19.4586L30.9066 19.7346L30.9063 24.5298ZM29.8518 32.6349C29.4024 32.812 28.9254 32.9089 28.4425 32.9211C27.8793 32.9375 27.3217 32.8048 26.8263 32.5364C26.3653 32.2639 26.0056 31.8488 25.8014 31.3538C25.5457 30.7186 25.4248 30.0372 25.4466 29.3528C25.4235 28.6519 25.5582 27.9547 25.8408 27.3128C26.0815 26.792 26.4773 26.3582 26.9741 26.0711C27.5146 25.7769 28.1233 25.6307 28.7385 25.6473C29.0551 25.6466 29.3712 25.6697 29.6843 25.7163C29.995 25.7644 30.3015 25.837 30.6008 25.9334C30.697 25.964 30.8031 26.0047 30.9063 26.0422V32.1169C30.571 32.3213 30.2177 32.4947 29.8508 32.6349H29.8518Z" fill="#8BB5EB"/>
<path d="M35.9906 34.3202H38.0011V24.0708L35.9906 24.3665V34.3202Z" fill="#8BB5EB"/>
<path d="M37.7153 19.9415C37.5107 19.8165 37.275 19.7516 37.0352 19.7542C36.7925 19.7523 36.5539 19.8171 36.3454 19.9415C36.1399 20.0619 35.9672 20.2312 35.8428 20.4343C35.7178 20.6389 35.6529 20.8745 35.6555 21.1143C35.6536 21.3571 35.7184 21.5956 35.8428 21.8041C35.9632 22.0104 36.1368 22.1806 36.3454 22.2969C36.5559 22.4153 36.7937 22.4764 37.0352 22.4743C37.2737 22.4772 37.5086 22.4159 37.7153 22.2969C37.9181 22.1797 38.0851 22.0093 38.1981 21.8041C38.3166 21.5936 38.3778 21.3558 38.3755 21.1143C38.3784 20.8758 38.3171 20.641 38.1981 20.4343C38.0811 20.2321 37.915 20.0627 37.7153 19.9415Z" fill="#8BB5EB"/>
<path d="M49.9846 26.4657C49.5918 25.7121 48.985 25.0915 48.2405 24.6818C47.4192 24.2457 46.4994 24.0286 45.5698 24.0515C44.6315 24.0299 43.7038 24.2542 42.879 24.7019C42.1176 25.128 41.4949 25.7642 41.0854 26.5347C40.6405 27.3991 40.4203 28.3616 40.4448 29.3335C40.4197 30.2979 40.6258 31.2542 41.046 32.1225C41.4235 32.8806 42.0258 33.5036 42.7706 33.9066C43.5724 34.3265 44.4675 34.5367 45.3724 34.5173C46.3197 34.5362 47.2561 34.3122 48.0924 33.8668C48.8734 33.441 49.5137 32.7973 49.9356 32.0141C50.3933 31.1395 50.6205 30.1627 50.5959 29.1758C50.6182 28.2359 50.4083 27.305 49.9846 26.4657ZM48.1219 31.2848C47.9006 31.797 47.5253 32.2276 47.0481 32.5167C46.5686 32.7912 46.0237 32.931 45.4713 32.9211C44.9295 32.9345 44.3954 32.7906 43.9338 32.5069C43.4771 32.2033 43.1205 31.7713 42.9089 31.2654C42.6407 30.6161 42.5132 29.9174 42.5348 29.2152C42.5114 28.5322 42.6391 27.8524 42.9089 27.2245C43.1301 26.731 43.4984 26.318 43.9634 26.0419C44.4607 25.7682 45.022 25.6321 45.5895 25.6477C46.0325 25.6366 46.4728 25.7207 46.8806 25.8941C47.2377 26.0552 47.5493 26.3024 47.7875 26.6135C48.0415 26.9517 48.2256 27.3371 48.3292 27.7471C48.4525 28.2266 48.5122 28.7202 48.5066 29.2152C48.5296 29.9248 48.3983 30.6309 48.1219 31.2848Z" fill="#8BB5EB"/>
</svg>

<svg xmlns="http://www.w3.org/2000/svg" viewBox="0 0 51 35"><path fill="#fff" d="M0 14.334v-14h4.593v14H0ZM10.843 2.563l2.641 11.77H8.457L5.303.336h2.82a2.655 2.655 0 0 1 1.764.64c.491.404.829.965.956 1.588Zm3.331 11.77V.336h4.594v13.999h-4.594Zm8.063-8.675a2.737 2.737 0 0 1-1.409-.374 2.778 2.778 0 0 1-1.015-1.016 2.735 2.735 0 0 1-.375-1.41 2.685 2.685 0 0 1 .375-1.4A2.812 2.812 0 0 1 23.637.454c.415.244.761.59 1.005 1.006.251.423.38.907.375 1.4.005.495-.125.982-.375 1.41a2.8 2.8 0 0 1-1.005 1.015c-.424.25-.908.38-1.4.374Zm3.49 8.676v-14h4.594v14h-4.594Zm10.409-6.35c.013.014.111.175.296.484.184.308.424.703.72 1.183a383.821 383.821 0 0 1 1.862 3.056c.289.48.617 1.022.986 1.627h-5.047l-.858-1.39c-.256-.415-.529-.861-.817-1.341-.29-.48-.576-.946-.858-1.4a71.293 71.293 0 0 1-.73-1.193 21.096 21.096 0 0 0-.424-.69 2.04 2.04 0 0 1-.334-.986c.019-.338.128-.664.315-.946.078-.132.223-.365.433-.7a216.7 216.7 0 0 0 1.598-2.603l.817-1.35.858-1.4H40l-3.904 6.368c-.12.19-.189.407-.197.631.013.236.095.462.236.65h.001Z"/><path fill="#8BB5EB" d="M6.864 28.548c.262-.04.52-.1.774-.18.512-.16.986-.425 1.39-.779a3.61 3.61 0 0 0 .926-1.3 4.527 4.527 0 0 0 .335-1.804 4.862 4.862 0 0 0-.444-2.09 3.327 3.327 0 0 0-1.458-1.507 5.649 5.649 0 0 0-2.73-.562H0V34.32h2.05V28.96h3.015l3.49 5.361h2.404l-3.272-4.848-.823-.924Zm.035-6.241c.408.155.75.448.965.828.226.441.334.933.315 1.429a2.868 2.868 0 0 1-.384 1.567c-.26.404-.649.71-1.103.867a4.917 4.917 0 0 1-1.705.266H2.05V22.04h3.173c.57-.02 1.14.071 1.676.266ZM21.582 33.079a.898.898 0 0 1-.768-.316 1.696 1.696 0 0 1-.217-1.044l.04-4.06a4.742 4.742 0 0 0-.158-1.262 3.1 3.1 0 0 0-.473-1.005 2.673 2.673 0 0 0-.818-.73 4.177 4.177 0 0 0-1.193-.453 7.012 7.012 0 0 0-1.557-.158c-.415 0-.83.026-1.242.079-.389.049-.774.125-1.153.227-.351.095-.696.21-1.035.345l-.236 1.675a11.538 11.538 0 0 1 1.793-.492c.27-.052.544-.088.819-.109.269-.02.535-.03.798-.03.402-.008.803.039 1.192.139.284.07.546.213.76.413.19.195.325.437.393.7.084.325.124.66.118.996l-.002.494-2.304.156a6.126 6.126 0 0 0-2.286.512 3.277 3.277 0 0 0-1.35 1.094 2.547 2.547 0 0 0-.444 1.449c-.003.485.115.963.345 1.39.241.438.604.797 1.045 1.034.538.28 1.139.416 1.744.395a4.535 4.535 0 0 0 1.666-.276c.46-.18.883-.448 1.242-.789.136-.13.265-.268.387-.413.039.204.11.4.214.58.175.303.446.538.768.67.357.144.74.215 1.124.208.118 0 .233-.003.345-.01.11-.006.219-.023.325-.05.105-.026.2-.049.286-.068.077-.017.153-.04.227-.07l.216-1.32a1.72 1.72 0 0 1-.335.079 2.196 2.196 0 0 1-.276.02Zm-3.281-.887a3.783 3.783 0 0 1-.69.434 3.097 3.097 0 0 1-.769.256c-.276.053-.556.08-.838.079-.32.009-.64-.052-.936-.178a1.285 1.285 0 0 1-.581-.502 1.473 1.473 0 0 1-.197-.78 1.494 1.494 0 0 1 .256-.925 1.51 1.51 0 0 1 .828-.493 6.01 6.01 0 0 1 1.537-.158h1.726l-.009 1.957c-.1.112-.21.216-.327.31ZM30.906 24.53c-.02-.008-.038-.018-.059-.026a6.795 6.795 0 0 0-2.503-.453 4.842 4.842 0 0 0-2.454.65 4.83 4.83 0 0 0-1.823 1.883 6.063 6.063 0 0 0-.69 3.006 6.077 6.077 0 0 0 .523 2.621c.32.704.84 1.297 1.498 1.705a4.36 4.36 0 0 0 2.335.601 5.469 5.469 0 0 0 1.488-.197 5.37 5.37 0 0 0 1.37-.61c.148-.092.296-.194.443-.3l.248.91h1.635V19.46l-2.01.276v4.795Zm-1.054 8.105c-.45.177-.927.274-1.41.286a3.198 3.198 0 0 1-1.616-.385 2.466 2.466 0 0 1-1.025-1.182 4.937 4.937 0 0 1-.354-2.001 4.68 4.68 0 0 1 .394-2.04c.24-.521.636-.955 1.133-1.242.54-.294 1.15-.44 1.764-.424a5.968 5.968 0 0 1 1.862.286c.097.031.203.072.306.11v6.074a6.453 6.453 0 0 1-1.055.518ZM35.99 34.32h2.011V24.07l-2.01.296v9.954ZM37.715 19.942a1.278 1.278 0 0 0-.68-.188 1.326 1.326 0 0 0-.69.188c-.205.12-.378.29-.502.492-.125.205-.19.44-.188.68-.001.243.063.482.188.69.12.206.294.377.502.493.21.118.449.18.69.177a1.33 1.33 0 0 0 .68-.177c.203-.117.37-.288.483-.493.119-.21.18-.448.178-.69a1.33 1.33 0 0 0-.178-.68 1.392 1.392 0 0 0-.483-.492ZM49.985 26.466a4.31 4.31 0 0 0-1.745-1.784 5.41 5.41 0 0 0-2.67-.63 5.381 5.381 0 0 0-2.691.65 4.544 4.544 0 0 0-1.794 1.833 5.797 5.797 0 0 0-.64 2.799c-.025.964.18 1.92.601 2.789.377.758.98 1.38 1.725 1.784a5.36 5.36 0 0 0 2.601.61 5.55 5.55 0 0 0 2.72-.65 4.589 4.589 0 0 0 1.844-1.853 5.809 5.809 0 0 0 .66-2.838 5.713 5.713 0 0 0-.611-2.71Zm-1.863 4.819a2.686 2.686 0 0 1-1.074 1.232 3.064 3.064 0 0 1-1.577.404 2.804 2.804 0 0 1-1.537-.414 2.778 2.778 0 0 1-1.025-1.242 4.97 4.97 0 0 1-.374-2.05 4.64 4.64 0 0 1 .374-1.99c.221-.494.59-.907 1.054-1.183a3.19 3.19 0 0 1 1.627-.394c.442-.011.883.073 1.29.246.358.161.67.408.907.72.255.338.439.723.542 1.133.123.48.183.973.178 1.468a4.907 4.907 0 0 1-.385 2.07Z"/></svg>
